src/img/icon-vk.svg

<svg width="44" height="24" viewBox="0 0 44 24" fill="none" xmlns="http://www.w3.org/2000/svg">
<path d="M43.7681 21.2C43.7151 21.0956 43.6657 21.009 43.6198 20.9396C42.8608 19.6897 41.4102 18.1555 39.2691 16.3366L39.2238 16.295L39.2012 16.2746L39.1783 16.2536H39.1553C38.1835 15.4067 37.5682 14.8372 37.3105 14.5456C36.8389 13.9902 36.7333 13.428 36.991 12.8584C37.1731 12.428 37.857 11.5191 39.0411 10.1305C39.664 9.39452 40.1573 8.80469 40.5216 8.36031C43.149 5.16678 44.288 3.12607 43.9386 2.23738L43.8029 2.0297C43.7117 1.90467 43.4763 1.7903 43.0971 1.68598C42.717 1.58189 42.2312 1.56468 41.6388 1.63405L35.0787 1.67548C34.9724 1.64105 34.8207 1.64426 34.623 1.68598C34.4255 1.72771 34.3267 1.74864 34.3267 1.74864L34.2125 1.8008L34.1219 1.86346C34.046 1.90489 33.9624 1.97776 33.8712 2.08193C33.7805 2.18573 33.7046 2.30755 33.644 2.44636C32.9298 4.12636 32.1177 5.68833 31.2064 7.13221C30.6445 7.99318 30.1284 8.73933 29.6571 9.37111C29.1865 10.0027 28.7916 10.468 28.473 10.7663C28.1539 11.0648 27.8658 11.304 27.6072 11.4847C27.3489 11.6655 27.1518 11.7418 27.0153 11.7139C26.8784 11.6859 26.7496 11.6582 26.6276 11.6305C26.4151 11.5055 26.2442 11.3354 26.1154 11.1203C25.986 10.9051 25.8988 10.6342 25.8533 10.3079C25.808 9.98144 25.7812 9.7006 25.7735 9.46448C25.7664 9.22865 25.7697 8.89507 25.7851 8.46469C25.8009 8.0341 25.808 7.74276 25.808 7.59001C25.808 7.06233 25.8192 6.48963 25.8418 5.87179C25.8648 5.25394 25.8834 4.76441 25.8989 4.40377C25.9144 4.04276 25.9216 3.66083 25.9216 3.25817C25.9216 2.85551 25.8948 2.53973 25.8418 2.31054C25.7895 2.08164 25.7091 1.85945 25.6033 1.64404C25.4967 1.42885 25.3408 1.26239 25.1363 1.14422C24.9313 1.0262 24.6765 0.932534 24.3732 0.862945C23.5683 0.696411 22.5433 0.606324 21.2978 0.592319C18.4734 0.5646 16.6585 0.731352 15.8537 1.09236C15.5348 1.24488 15.2462 1.45329 14.9882 1.71691C14.7148 2.02248 14.6766 2.18923 14.874 2.21666C15.7853 2.34147 16.4304 2.64003 16.8101 3.11206L16.947 3.36219C17.0534 3.54265 17.1597 3.86215 17.266 4.32025C17.3722 4.77834 17.4407 5.28509 17.4709 5.8402C17.5467 6.85392 17.5467 7.72168 17.4709 8.44354C17.3949 9.1657 17.3231 9.72788 17.2545 10.1305C17.186 10.5332 17.0836 10.8595 16.947 11.1093C16.8101 11.3592 16.7191 11.512 16.6735 11.5674C16.6279 11.6229 16.5899 11.6578 16.5598 11.6715C16.3624 11.7407 16.1571 11.7759 15.9446 11.7759C15.7319 11.7759 15.4738 11.6786 15.1702 11.4841C14.8666 11.2896 14.5515 11.0225 14.225 10.6823C13.8984 10.342 13.5301 9.86648 13.12 9.25564C12.7101 8.6448 12.2849 7.92286 11.8445 7.08983L11.4801 6.48569C11.2523 6.09704 10.9412 5.53114 10.5463 4.78848C10.1512 4.04554 9.80202 3.32688 9.49844 2.63266C9.37709 2.3411 9.19479 2.11913 8.95184 1.96639L8.83783 1.90372C8.76204 1.84829 8.64037 1.78942 8.47346 1.72669C8.30631 1.66403 8.13191 1.61909 7.94952 1.59145L1.70813 1.63288C1.07034 1.63288 0.637589 1.76498 0.409727 2.02883L0.318534 2.15363C0.272978 2.22315 0.25 2.33417 0.25 2.48699C0.25 2.63974 0.295556 2.82721 0.386749 3.04918C1.29788 5.00703 2.28871 6.89521 3.35925 8.71402C4.42979 10.5328 5.36006 11.9979 6.14952 13.108C6.93914 14.2189 7.744 15.2673 8.5641 16.2528C9.38419 17.2387 9.92704 17.8704 10.1926 18.148C10.4586 18.4261 10.6674 18.634 10.8193 18.7728L11.3888 19.2725C11.7533 19.6058 12.2885 20.005 12.9946 20.47C13.701 20.9353 14.4829 21.3934 15.3409 21.845C16.1991 22.2959 17.1974 22.6638 18.3365 22.9484C19.4754 23.2332 20.5839 23.3475 21.6622 23.2924H24.2818C24.8131 23.2504 25.2156 23.0977 25.4892 22.8341L25.5798 22.7297C25.6407 22.6468 25.6978 22.5181 25.7505 22.3448C25.8037 22.1713 25.8302 21.9801 25.8302 21.7721C25.8147 21.1752 25.8644 20.6373 25.978 20.1583C26.0915 19.6795 26.2209 19.3185 26.3657 19.0754C26.5103 18.8324 26.6735 18.6275 26.8552 18.4613C27.0373 18.2948 27.167 18.1939 27.2431 18.1592C27.3188 18.1242 27.3792 18.1005 27.4247 18.0863C27.7892 17.9753 28.2181 18.0828 28.7121 18.4094C29.2057 18.7356 29.6687 19.1385 30.1018 19.6173C30.5346 20.0966 31.0546 20.6343 31.6619 21.2312C32.2697 21.8283 32.801 22.2722 33.2564 22.5642L33.7118 22.8141C34.016 22.9808 34.4108 23.1336 34.8969 23.2724C35.382 23.4111 35.8071 23.4459 36.1721 23.3765L42.0033 23.2933C42.58 23.2933 43.0288 23.206 43.3471 23.0328C43.6661 22.8592 43.8556 22.668 43.9167 22.4601C43.9777 22.2519 43.9809 22.0157 43.9283 21.7516C43.8743 21.4882 43.821 21.304 43.7681 21.2Z" fill="white"/>
</svg>

<svg width="44" height="24" fill="none" xmlns="http://www.w3.org/2000/svg"><path d="M43.768 21.2a2.667 2.667 0 00-.148-.26c-.76-1.25-2.21-2.785-4.35-4.603l-.046-.042-.023-.02-.023-.021h-.023c-.971-.847-1.587-1.417-1.845-1.708-.471-.556-.577-1.118-.319-1.688.182-.43.866-1.339 2.05-2.728a137.83 137.83 0 001.48-1.77c2.628-3.193 3.767-5.234 3.418-6.123l-.136-.207c-.091-.125-.327-.24-.706-.344-.38-.104-.866-.121-1.458-.052l-6.56.041c-.107-.034-.258-.03-.456.011l-.296.063-.114.052-.091.062a.983.983 0 00-.25.219 1.422 1.422 0 00-.228.364 32.81 32.81 0 01-2.438 4.686 44.01 44.01 0 01-1.549 2.24c-.47.63-.865 1.096-1.184 1.394-.32.299-.607.538-.866.719-.258.18-.455.257-.592.229a18.443 18.443 0 01-.387-.084 1.44 1.44 0 01-.513-.51 2.142 2.142 0 01-.262-.812 8.22 8.22 0 01-.08-.844c-.007-.235-.003-.569.012-1 .016-.43.023-.721.023-.874 0-.528.011-1.1.034-1.718.023-.618.041-1.108.057-1.468.015-.361.023-.743.023-1.146 0-.402-.027-.718-.08-.947a3.052 3.052 0 00-.239-.667 1.158 1.158 0 00-.467-.5 2.777 2.777 0 00-.763-.281c-.805-.167-1.83-.257-3.075-.27-2.825-.028-4.64.138-5.444.5-.32.152-.608.36-.866.624-.273.305-.311.472-.114.5.911.124 1.556.423 1.936.895l.137.25c.106.18.213.5.319.958.106.458.175.965.205 1.52.076 1.014.076 1.882 0 2.604a28.379 28.379 0 01-.216 1.686c-.069.403-.171.73-.308.98-.137.25-.228.402-.273.457a.379.379 0 01-.114.104c-.198.07-.403.105-.615.105-.213 0-.471-.097-.775-.292a5.312 5.312 0 01-.945-.802c-.327-.34-.695-.816-1.105-1.426a24.194 24.194 0 01-1.275-2.166l-.365-.604a50.41 50.41 0 01-.934-1.698 31.38 31.38 0 01-1.048-2.155 1.393 1.393 0 00-.546-.667l-.114-.062a1.61 1.61 0 00-.365-.177 2.595 2.595 0 00-.523-.136l-6.242.042c-.638 0-1.07.132-1.298.396l-.091.125c-.046.07-.069.18-.069.333 0 .153.046.34.137.562a66.337 66.337 0 002.972 5.665c1.07 1.819 2.001 3.284 2.79 4.394.79 1.11 1.595 2.16 2.415 3.145.82.986 1.363 1.617 1.629 1.895s.474.486.626.625l.57.5c.364.333.9.732 1.606 1.197a27.85 27.85 0 002.346 1.375c.858.45 1.856.819 2.996 1.103 1.138.285 2.247.4 3.325.344h2.62c.531-.042.934-.194 1.207-.458l.09-.104a1.32 1.32 0 00.171-.385c.054-.174.08-.365.08-.573a6.295 6.295 0 01.148-1.614c.113-.479.243-.84.388-1.083a2.68 2.68 0 01.49-.614c.181-.166.311-.267.387-.302.076-.035.136-.058.182-.073.364-.11.793-.003 1.287.323.494.327.957.73 1.39 1.208.433.48.953 1.017 1.56 1.614.608.597 1.139 1.041 1.594 1.333l.456.25c.304.167.699.32 1.185.458.485.14.91.174 1.275.105l5.831-.084c.577 0 1.026-.087 1.344-.26.32-.174.509-.365.57-.573.06-.208.064-.444.011-.708-.054-.264-.107-.448-.16-.552z" fill="#fff"/></svg>
